X: 248
T: A Lovely Madness
R: reel
M: 4/4
K: Eminor
|:EB B2 ABcA|BAGB AGFG|EB B2 ABcA|Beed e3f|
g3f gfed|eB B2 cA A2|BABc BAGB|AGFG E2 FA:|
|:G2 BG dGBG|A2 cA eAcA|B2 dB fBdB|c2 ec gcec|g3f gfed|
eB B2 cA A2|BABc BAGB|1 AGFG E2 fA:|2 AGFG E2 E2||

